packages/foundations/assets/icons/functional/images/technology/light_bulb.svg

<svg xmlns="http://www.w3.org/2000/svg" width="32" height="32" fill="none"><path fill="#1A1C1F" fill-rule="evenodd" d="M14.576 2.11c-2.725.397-5.186 1.961-6.736 4.28-1.659 2.481-2.093 5.699-1.151 8.515.414 1.236 1.076 2.277 2.326 3.655 1.075 1.184 1.493 1.827 1.573 2.415.042.306.173.604.326.739.291.254.142.246 4.873.287 3.391.03 4.526.024 4.76-.025.506-.105.787-.431.864-.999.081-.591.461-1.181 1.524-2.364 1.344-1.495 1.954-2.448 2.376-3.708.685-2.047.654-4.296-.086-6.398-1.192-3.384-4.265-5.891-7.845-6.4-.682-.097-2.132-.095-2.804.003m2.837 2.022c1.586.284 3.222 1.189 4.318 2.388.687.75 1.345 1.855 1.654 2.776.464 1.384.525 3.111.16 4.506-.33 1.257-.804 2.023-2.261 3.656-.798.894-1.144 1.368-1.453 1.995l-.269.547h-2.549v-2.697l.622-.851c.342-.468.665-.947.719-1.065.302-.665-.167-1.36-.918-1.36-.414 0-.624.146-1.043.728-.198.274-.375.498-.394.498-.018 0-.168-.188-.333-.418-.334-.467-.614-.737-.816-.787-.277-.07-.7.006-.905.163-.363.277-.5.823-.303 1.204.053.102.377.568.72 1.037l.625.851V20h-2.554l-.236-.493c-.31-.648-.615-1.067-1.503-2.067-1.231-1.388-1.717-2.105-2.057-3.033-.318-.871-.391-1.349-.392-2.567-.001-1.182.064-1.631.368-2.538.925-2.754 3.406-4.805 6.32-5.225.627-.091 1.815-.064 2.48.055M13.12 5.978c-.43.195-1.245.775-1.654 1.178a6.1 6.1 0 0 0-1.265 1.738c-.24.479-.301.652-.301.853.002.859.974 1.322 1.624.774.089-.074.26-.33.38-.568a8 8 0 0 1 .418-.73c.274-.403.974-1.049 1.383-1.276.491-.273.789-.557.86-.819.232-.86-.609-1.529-1.445-1.15m-1.373 17.06c-.366.089-.659.411-.733.809-.084.447.253.984.694 1.107.297.082 8.287.082 8.584 0 .283-.079.588-.391.667-.682.118-.442-.041-.85-.433-1.11l-.225-.149-4.19-.008c-2.305-.005-4.269.01-4.364.033m-.287 3.141c-.666.423-.588 1.391.138 1.721.179.081.356.098 1.051.099l.836.001.017.657c.017.614.028.673.165.879.08.122.248.276.373.343.222.119.26.121 1.96.121 1.654 0 1.743-.005 1.947-.111.117-.062.285-.214.373-.338.154-.218.161-.252.178-.889l.017-.662.836-.001c.695-.001.872-.018 1.051-.099.726-.33.804-1.298.138-1.721l-.241-.152h-8.598z"/></svg>

<svg width="32" height="32" viewBox="0 0 32 32" fill="none" xmlns="http://www.w3.org/2000/svg"><path d="M14.576 2.110 C 11.851 2.507,9.390 4.071,7.840 6.390 C 6.181 8.871,5.747 12.089,6.689 14.905 C 7.103 16.141,7.765 17.182,9.015 18.560 C 10.090 19.744,10.508 20.387,10.588 20.975 C 10.630 21.281,10.761 21.579,10.914 21.714 C 11.205 21.968,11.056 21.960,15.787 22.001 C 19.178 22.031,20.313 22.025,20.547 21.976 C 21.053 21.871,21.334 21.545,21.411 20.977 C 21.492 20.386,21.872 19.796,22.935 18.613 C 24.279 17.118,24.889 16.165,25.311 14.905 C 25.996 12.858,25.965 10.609,25.225 8.507 C 24.033 5.123,20.960 2.616,17.380 2.107 C 16.698 2.010,15.248 2.012,14.576 2.110 M17.413 4.132 C 18.999 4.416,20.635 5.321,21.731 6.520 C 22.418 7.270,23.076 8.375,23.385 9.296 C 23.849 10.680,23.910 12.407,23.545 13.802 C 23.215 15.059,22.741 15.825,21.284 17.458 C 20.486 18.352,20.140 18.826,19.831 19.453 L 19.562 20.000 18.287 20.000 L 17.013 20.000 17.013 18.652 L 17.013 17.303 17.635 16.452 C 17.977 15.984,18.300 15.505,18.354 15.387 C 18.656 14.722,18.187 14.027,17.436 14.027 C 17.022 14.027,16.812 14.173,16.393 14.755 C 16.195 15.029,16.018 15.253,15.999 15.253 C 15.981 15.253,15.831 15.065,15.666 14.835 C 15.332 14.368,15.052 14.098,14.850 14.048 C 14.573 13.978,14.150 14.054,13.945 14.211 C 13.582 14.488,13.445 15.034,13.642 15.415 C 13.695 15.517,14.019 15.983,14.362 16.452 L 14.987 17.303 14.987 18.652 L 14.987 20.000 13.710 20.000 L 12.433 20.000 12.197 19.507 C 11.887 18.859,11.582 18.440,10.694 17.440 C 9.463 16.052,8.977 15.335,8.637 14.407 C 8.319 13.536,8.246 13.058,8.245 11.840 C 8.244 10.658,8.309 10.209,8.613 9.302 C 9.538 6.548,12.019 4.497,14.933 4.077 C 15.560 3.986,16.748 4.013,17.413 4.132 M13.120 5.978 C 12.690 6.173,11.875 6.753,11.466 7.156 C 10.909 7.705,10.552 8.194,10.201 8.894 C 9.961 9.373,9.900 9.546,9.900 9.747 C 9.902 10.606,10.874 11.069,11.524 10.521 C 11.613 10.447,11.784 10.191,11.904 9.953 C 12.023 9.715,12.212 9.387,12.322 9.223 C 12.596 8.820,13.296 8.174,13.705 7.947 C 14.196 7.674,14.494 7.390,14.565 7.128 C 14.797 6.268,13.956 5.599,13.120 5.978 M11.747 23.038 C 11.381 23.127,11.088 23.449,11.014 23.847 C 10.930 24.294,11.267 24.831,11.708 24.954 C 12.005 25.036,19.995 25.036,20.292 24.954 C 20.575 24.875,20.880 24.563,20.959 24.272 C 21.077 23.830,20.918 23.422,20.526 23.162 L 20.301 23.013 16.111 23.005 C 13.806 23.000,11.842 23.015,11.747 23.038 M11.460 26.179 C 10.794 26.602,10.872 27.570,11.598 27.900 C 11.777 27.981,11.954 27.998,12.649 27.999 L 13.485 28.000 13.502 28.657 C 13.519 29.271,13.530 29.330,13.667 29.536 C 13.747 29.658,13.915 29.812,14.040 29.879 C 14.262 29.998,14.300 30.000,16.000 30.000 C 17.654 30.000,17.743 29.995,17.947 29.889 C 18.064 29.827,18.232 29.675,18.320 29.551 C 18.474 29.333,18.481 29.299,18.498 28.662 L 18.515 28.000 19.351 27.999 C 20.046 27.998,20.223 27.981,20.402 27.900 C 21.128 27.570,21.206 26.602,20.540 26.179 L 20.299 26.027 16.000 26.027 L 11.701 26.027 11.460 26.179 " fill="#1A1C1F" stroke="none" fill-rule="evenodd"></path></svg>
